img/icons/arrow_right.svg

<svg xmlns="http://www.w3.org/2000/svg"
 xmlns:xlink="http://www.w3.org/1999/xlink"
 width="23px" height="11px"  viewBox="0 0 23 11">
<path fill-rule="evenodd"  fill="#181f2c"
 d="M1.9999695,6.0 C1.9999695,6.0 1.9999695,4.9999084 1.9999695,4.9999084 C1.9999695,4.9999084 21.00003,4.9999084 21.00003,4.9999084 C21.00003,4.9999084 21.00003,6.0 21.00003,6.0 C21.00003,6.0 1.9999695,6.0 1.9999695,6.0 ZM21.353546,5.6462708 C21.353546,5.6462708 20.646515,6.353546 20.646515,6.353546 C20.646515,6.353546 16.64647,2.3536072 16.64647,2.3536072 C16.64647,2.3536072 17.353607,1.6463318 17.353607,1.6463318 C17.353607,1.6463318 21.353546,5.6462708 21.353546,5.6462708 ZM16.64647,8.646332 C16.64647,8.646332 17.353607,9.353668 17.353607,9.353668 C17.353607,9.353668 21.353546,5.3536987 21.353546,5.3536987 C21.353546,5.3536987 20.646515,4.646393 20.646515,4.646393 C20.646515,4.646393 16.64647,8.646332 16.64647,8.646332 Z"/>
</svg>

<svg xmlns="http://www.w3.org/2000/svg" width="23" height="11"><path fill-rule="evenodd" fill="#181f2c" d="M2 6V5h19v1H2zm19.354-.354l-.707.708-4-4 .707-.708 4 4zm-4.708 3l.708.708 4-4-.707-.708-4 4z"/></svg>
